build/images/block_2/steps/4.svg

<?xml version="1.0" encoding="UTF-8"?>
<svg width="66px" height="47px" viewBox="0 0 66 47" version="1.1" xmlns="http://www.w3.org/2000/svg" xmlns:xlink="http://www.w3.org/1999/xlink">
    <!-- Generator: Sketch 63.1 (92452) - https://sketch.com -->
    <title>4</title>
    <desc>Created with Sketch.</desc>
    <g id="Symbols" stroke="none" stroke-width="1" fill="none" fill-rule="evenodd">
        <g id="4" transform="translate(0.000000, -6.000000)" fill-rule="nonzero">
            <g transform="translate(0.000000, 6.000000)">
                <path d="M60,0 C63.3137085,0 66,2.6862915 66,6 L66,41 C66,44.3137085 63.3137085,47 60,47 L6,47 C2.6862915,47 0,44.3137085 0,41 L0,6 C0,2.6862915 2.6862915,0 6,0 L60,0 Z M60,2 L6,2 C3.85780461,2 2.10892112,3.68396847 2.00489531,5.80035966 L2,6 L2,41 C2,43.1421954 3.68396847,44.8910789 5.80035966,44.9951047 L6,45 L60,45 C62.1421954,45 63.8910789,43.3160315 63.9951047,41.1996403 L64,41 L64,6 C64,3.85780461 62.3160315,2.10892112 60.1996403,2.00489531 L60,2 Z" id="Rectangle" fill="#8E8E8E"></path>
                <path d="M46.0010833,4.99999939 C46.5139189,5.00055616 46.9361717,5.38705402 46.993398,5.88445499 L47,6.00108333 L46.9910321,13.277556 L47.0988874,13.1099236 L47.0988874,13.1099236 L47.3907984,12.6895079 C49.0091643,10.4257636 51.5080739,7.82386971 54.5811651,10.9045491 C57.5382825,13.8689845 55.2023883,16.2434222 53.002195,17.856786 L52.802,17.9999994 L60,17.9999994 C60.5522847,17.9999994 61,18.4477153 61,18.9999994 C61,19.5128358 60.6139598,19.9355072 60.1166211,19.9932723 L60,19.9999994 L50.9609478,19.9998893 C51.4848936,20.2321535 51.9982241,20.5135616 52.4896259,20.8554972 L52.8729693,21.1269599 C55.1087496,22.74146 57.5962652,25.1506599 54.5811651,28.1732215 C51.3921082,31.3701529 48.821385,28.4475456 47.2113653,26.1337579 C47.1296601,26.0163379 47.051545,25.8975318 46.9768509,25.7775074 L46.9675006,36.0010833 C46.9669011,36.5533678 46.5187011,37.0005977 45.9664167,36.9999994 C45.4535811,36.9994438 45.0313283,36.612946 44.974102,36.115545 L44.9675006,35.9989167 L44.9788404,25.5348795 C44.8616647,25.7378478 44.7352697,25.9377345 44.5988693,26.1337579 L44.4194362,26.3882627 C42.8010703,28.6520069 40.3021607,31.2539008 37.2290694,28.1732215 C34.3299347,25.2669122 36.5182775,22.9276904 38.6785008,21.3167648 L38.9372653,21.1269599 L39.3206086,20.8554972 C39.8120104,20.5135616 40.325341,20.2321535 40.8492868,19.9998893 L7,19.9999994 C6.44771525,19.9999994 6,19.5522847 6,18.9999994 C6,18.4871642 6.38604019,18.0644928 6.88337887,18.0067277 L7,17.9999994 L39.007,17.9999994 L38.6785008,17.7610057 C36.5182775,16.1500801 34.3299347,13.8108583 37.2290694,10.9045491 C40.4181264,7.70761766 42.9888496,10.6302249 44.5988693,12.9440127 C44.7404216,13.1474401 44.8711986,13.3550281 44.9920785,13.5659032 L45,5.99891667 C45.0005989,5.44663224 45.4487989,4.99940228 46.0010833,4.99999939 Z M44.3334394,21.0830763 L44.0208457,21.1329732 C42.5846292,21.3819752 41.465585,21.7994891 40.4629424,22.4971652 C39.1428201,23.4157554 38.3359236,24.1615324 37.9895803,24.8344871 C37.6889427,25.4186343 37.7783719,25.8919482 38.6450275,26.7607548 C39.5165325,27.6344053 40.0111794,27.7309101 40.6128617,27.4305649 C41.2519115,27.1115667 41.9630948,26.3801308 42.7804226,25.2416196 L42.9572013,24.9914242 L43.0907266,24.7926811 C43.6894633,23.8688486 44.0479291,22.84879 44.2701919,21.5066119 L44.3334394,21.0830763 Z M47.7893888,21.1329732 L47.4767952,21.0830763 L47.4872542,21.1642258 C47.7042297,22.678112 48.0708766,23.7918626 48.719508,24.7926811 L48.8530332,24.9914242 C49.7451742,26.2735356 50.5126767,27.0887811 51.1973728,27.4305649 C51.7990551,27.7309101 52.2937021,27.6344053 53.165207,26.7607548 C54.0318627,25.8919482 54.1212919,25.4186343 53.8206543,24.8344871 C53.4743109,24.1615324 52.6674145,23.4157554 51.3472922,22.4971652 C50.3446496,21.7994891 49.2256053,21.3819752 47.7893888,21.1329732 Z M38.7950126,12.1708356 L38.6450319,12.3170201 C37.7783719,13.1858224 37.6889427,13.6591362 37.9895803,14.2432835 C38.3359236,14.9162382 39.1428201,15.6620151 40.4629424,16.5806053 C41.465585,17.2782814 42.5846292,17.6957953 44.0208457,17.9447974 L44.3334394,17.9946943 L44.3229803,17.9135447 C44.1060049,16.3996585 43.739358,15.285908 43.0907266,14.2850894 L42.9572013,14.0863464 C42.0650604,12.8042349 41.2975579,11.9889894 40.6128617,11.6472056 C40.0465725,11.3645278 39.5750966,11.4333849 38.7950126,12.1708356 Z M53.165207,12.3170157 C52.2937021,11.4433653 51.7990551,11.3468604 51.1973728,11.6472056 C50.5583231,11.9662038 49.8471398,12.6976398 49.029812,13.8361509 L48.8530332,14.0863464 L48.719508,14.2850894 C48.1207713,15.2089219 47.7623054,16.2289805 47.5400426,17.5711586 L47.4767952,17.9946943 L47.7893888,17.9447974 C49.2256053,17.6957953 50.3446496,17.2782814 51.3472922,16.5806053 C52.6674145,15.6620151 53.4743109,14.9162382 53.8206543,14.2432835 C54.1212919,13.6591362 54.0318627,13.1858224 53.165207,12.3170157 Z" id="Shape" fill="#000000"></path>
            </g>
        </g>
    </g>
</svg>

<svg width="66" height="47" xmlns="http://www.w3.org/2000/svg"><g fill="none"><path d="M60 0a6 6 0 016 6v35a6 6 0 01-6 6H6a6 6 0 01-6-6V6a6 6 0 016-6h54zm0 2H6a4 4 0 00-3.995 3.8L2 6v35a4 4 0 003.8 3.995L6 45h54a4 4 0 003.995-3.8L64 41V6a4 4 0 00-3.8-3.995L60 2z" fill="#8E8E8E"/><path d="M46.001 5a1 1 0 01.992.884l.007.117-.009 7.277.108-.168.292-.42c1.618-2.264 4.117-4.866 7.19-1.785 2.957 2.964.621 5.338-1.579 6.952l-.2.143H60a1 1 0 01.117 1.993L60 20h-9.04a9.187 9.187 0 011.53.855l.383.272c2.236 1.614 4.723 4.024 1.708 7.046-3.189 3.197-5.76.275-7.37-2.04a8.321 8.321 0 01-.234-.355L46.967 36a1 1 0 01-1.993.115l-.006-.117.01-10.464a8.407 8.407 0 01-.38.599l-.179.254c-1.618 2.264-4.117 4.866-7.19 1.785-2.9-2.906-.71-5.245 1.45-6.856l.258-.19.384-.272A9.187 9.187 0 0140.849 20H7a1 1 0 01-.117-1.993L7 18h32.007l-.328-.239c-2.16-1.61-4.35-3.95-1.45-6.856 3.19-3.197 5.76-.275 7.37 2.039.141.203.272.411.393.622L45 5.999A1 1 0 0146.001 5zm-1.668 16.083l-.312.05c-1.436.249-2.555.666-3.558 1.364-1.32.919-2.127 1.665-2.473 2.337-.301.585-.212 1.058.655 1.927.872.873 1.366.97 1.968.67.639-.32 1.35-1.05 2.167-2.19l.177-.25.134-.198c.598-.924.957-1.944 1.18-3.286l.062-.424zm3.456.05l-.312-.05.01.081c.217 1.514.584 2.628 1.233 3.629l.133.198c.892 1.283 1.66 2.098 2.344 2.44.602.3 1.097.203 1.968-.67.867-.87.956-1.342.656-1.927-.347-.672-1.154-1.418-2.474-2.337-1.002-.698-2.121-1.115-3.558-1.364zm-8.994-8.962l-.15.146c-.867.869-.956 1.342-.655 1.926.346.673 1.153 1.419 2.473 2.338 1.003.697 2.122 1.115 3.558 1.364l.312.05-.01-.081c-.217-1.514-.584-2.628-1.232-3.629l-.134-.199c-.892-1.282-1.66-2.097-2.344-2.439-.566-.282-1.038-.214-1.818.524zm14.37.146c-.871-.874-1.366-.97-1.968-.67-.639.32-1.35 1.05-2.167 2.19l-.177.25-.133.198c-.6.924-.958 1.944-1.18 3.286l-.063.424.312-.05c1.437-.25 2.556-.667 3.558-1.364 1.32-.919 2.127-1.665 2.474-2.338.3-.584.21-1.057-.656-1.926z" fill="#000"/></g></svg>
